!!!!SEGMENT: pl-cz--iii-666--001-009_scigalski-franciszek--missa-in-c-pleni-sunt.krn
!!!cenid: 18xx:1092
!!!COM: Ścigalski, Franciszek
!!!COM-rismID: pe30002948
!!!CDT: 1782/01/29-1846/09/27
!!!CNT: Polish
!!!OPR: Missa in C
!!!OTL: Pleni sunt
!!!OMV: 009
!!!PDT:
!!!AGN: Sacred; Mass
!!!SMS-siglum: PL-CZ
!!!SMS-shelfmark: III-666
!!!SMS-shelfwork: 001-009 M
!!!SMS-variant:
!!!SMS-altvar:
!!!NIFC-rismSourceID: 300001312
!!!NIFC-rismChildID: 300001312
!!!NIFC-islandoraID: pl-cz:39667
!!!URL-pdf-islandora: https://repozytorium.nifc.pl/islandora/object/pl-cz%3A39667/datastream/PDF/view
!!!URL-scan:
!!!ONB-nifc: UWAGA: części Mszy: Kyrie, Gloria, Qui tollis, Quoniam, Credo, Et incarnatus, Et resurrexit, Sanctus, Pleni sunt, Benedictus, Agnus Dei, Dona nobis. UWAGA: „Amen” częścią „Quoniam”
!!!AIN: 1 alto 1 bass 2 clars 1 clrno 2 cor 2 fagot 2 flt 1 organ 1 soprn 1 tenor 1 timpa 1 viola 2 violn
!!!key: C
**kern	**fba	**dynam	**kern	**dynam	**kern	**dynam	**kern	**dynam	**kern	**text	**kern	**text	**kern	**text	**kern	**text	**kern	**kern	**kern	**kern	**dynam	**kern	**kern	**dynam	**kern	**dynam	**kern	**dynam	**kern	**dynam	**kern
*part18	*	*part18	*part17	*part17	*part16	*part16	*part15	*	*part14	*part14	*part13	*part13	*part12	*part12	*part11	*part11	*part10	*part9	*part8	*part7	*part7	*part6	*part5	*part5	*part4	*part4	*part3	*part3	*part2	*part2	*part1
*group6	*	*	*group5	*	*group5	*	*group5	*	*group4	*group4	*group4	*group4	*group4	*group4	*group4	*group4	*group3	*group2	*group2	*group2	*	*group1	*group1	*	*group1	*	*group1	*	*group1	*	*group1
*staff18	*	*	*staff17	*	*staff16	*	*staff15	*	*staff14	*staff14	*staff13	*staff13	*staff12	*staff12	*staff11	*staff11	*staff10	*staff9	*staff8	*staff7	*	*staff6	*staff5	*	*staff4	*	*staff3	*	*staff2	*	*staff1
*I"Organo.	*	*	*I"Viola.	*	*I"Violino Secondo	*	*I"Violino Primo.	*	*I"Baſso!	*	*I"Tenore.	*	*I"Alto.	*	*I"Canto	*	*I"Tympano in C. G.	*I"Clarino Prinpalo. in C.	*I"Corno Secundo in G	*I"Corno Primo in G	*	*I"Fagotto Secondo.	*I"Fagotto Primo.	*	*I"Clarinetto Secondo. in C.	*	*I"Clarinetto Primo in C	*	*I"Flauto Secondo.	*	*I"Flauto Primo.
*I'org	*	*	*I'vla	*	*I'vl 2	*	*I'vl 1	*	*I'B	*	*I'T	*	*I'A	*	*I'S	*	*I'timp	*I'clno princ	*I'cor 2	*I'cor 1	*	*I'fg 2	*I'fg 1	*	*I'cl 2	*	*I'cl 1	*	*I'fl 2	*	*I'fl 1
*Iorgan	*	*	*Iviola	*	*Ivioln	*	*Ivioln	*	*Ibass	*	*Itenor	*	*Ialto	*	*Isoprn	*	*Itimpa	*Iclrno	*Icor	*Icor	*	*Ifagot	*Ifagot	*	*Iclars	*	*Iclars	*	*Iflt	*	*Iflt
*ICklav	*	*	*ICstr	*	*ICstr	*	*ICstr	*	*ICvox	*	*ICvox	*	*ICvox	*	*ICvox	*	*ICidio	*ICbras	*ICbras	*ICbras	*	*ICww	*ICww	*	*ICww	*	*ICww	*	*ICww	*	*ICww
*IGcont	*	*	*	*	*	*	*	*	*	*	*	*	*	*	*	*	*	*	*	*	*	*	*	*	*	*	*	*	*	*	*
*clefF4	*	*	*clefC3	*	*clefG2	*	*clefG2	*	*clefF4	*	*clefC3	*	*clefC3	*	*clefC1	*	*clefF4	*clefG2	*clefG2	*clefG2	*	*clefF4	*clefF4	*	*clefG2	*	*clefG2	*	*clefG2	*	*clefG2
*	*	*	*	*	*	*	*	*	*	*	*	*	*	*	*	*	*	*	*Trd0c0	*Trd0c0	*	*	*	*	*	*	*	*	*	*	*
*k[]	*	*	*k[]	*	*k[]	*	*k[]	*	*k[]	*	*k[]	*	*k[]	*	*k[]	*	*k[]	*k[]	*k[]	*k[]	*	*k[]	*k[]	*	*k[]	*	*k[]	*	*k[]	*	*k[]
*C:	*	*	*C:	*	*C:	*	*C:	*	*C:	*	*C:	*	*C:	*	*C:	*	*C:	*C:	*C:	*C:	*	*C:	*C:	*	*C:	*	*C:	*	*C:	*	*C:
*M2/2	*	*	*M2/2	*	*M2/2	*	*M2/2	*	*M2/2	*	*M2/2	*	*M2/2	*	*M2/2	*	*M2/2	*M2/2	*M2/2	*M2/2	*	*M2/2	*M2/2	*	*M2/2	*	*M2/2	*	*M2/2	*	*M2/2
*met(c|)	*	*	*met(c|)	*	*met(c|)	*	*met(c|)	*	*met(c|)	*	*met(c|)	*	*met(c|)	*	*met(c|)	*	*met(c|)	*met(c|)	*met(c|)	*met(c|)	*	*met(c|)	*met(c|)	*	*met(c|)	*	*met(c|)	*	*met(c|)	*	*met(c|)
!	!	!	!	!	!	!	!	!	!	!	!LO:CL:ed	!	!	!	!	!	!	!	!	!	!	!	!	!	!	!	!	!	!	!	!
*	*	*	*	*	*	*	*	*below	*	*	*clefC4	*	*	*	*	*	*	*	*	*	*	*	*	*	*	*	*	*	*	*	*
!	!	!	!	!	!	!	!	!	!	!	!	!	!LO:TX:t=P:problem:brak klucza	!	!LO:TX:t=P:problem:brak klucza	!	!	!	!	!	!	!	!	!	!	!	!	!	!	!	!
!LO:TX:a:t=Allo molto	!	!	!LO:TX:a:t=Allo. molto:note=podkreślone	!	!LO:TX:a:t=Allo molto	!	!LO:TX:a:t=Allo molto	!	!LO:TX:a:t=Allo	!	!LO:TX:a:t=Allo Molto:note=podkreślone	!	!LO:TX:a:t=Allo&colon; Molto	!	!LO:TX:a:t=Allo&colon; Molto	!	!LO:TX:a:t=Allo Moderato	!LO:TX:a:t=Allo	!LO:TX:a:t=Allo molto	!LO:TX:a:t=Allo	!	!LO:TX:a:t=Allo Molto	!LO:TX:a:t=Allo Molto	!	!LO:TX:a:t=Allo	!	!LO:TX:a:t=Allo Molto	!	!LO:TX:a:t=Allo	!	!LO:TX:a:t=Allo Molto.:note=podkreślone
4r	.	.	4r	.	4r	.	(8gg\L	.	4r	.	4r	.	4r	.	4r	.	4r	4r	4r	4r	.	4r	4r	.	4r	.	4r	.	4r	.	4rg
.	.	.	.	.	.	.	8ff\J)	.	.	.	.	.	.	.	.	.	.	.	.	.	.	.	.	.	.	.	.	.	.	.	.
=1	=1	=1	=1	=1	=1	=1	=1	=1	=1	=1	=1	=1	=1	=1	=1	=1	=1	=1	=1	=1	=1	=1	=1	=1	=1	=1	=1	=1	=1	=1	=1
!	!	!	!	!	!	!	!	!LO:DY:b:t=f.	!	!	!	!	!	!	!	!	!	!	!	!	!	!	!	!	!	!	!	!	!	!	!
4r	.	.	4r	.	4r	.	8ee'\L	f	4r	.	4r	.	4r	.	4r	.	4r	4r	4r	4r	.	4r	4r	.	4r	.	4r	.	4r	.	4r
.	.	.	.	.	.	.	8ff'\	.	.	.	.	.	.	.	.	.	.	.	.	.	.	.	.	.	.	.	.	.	.	.	.
!	!	!	!	!	!	!LO:DY:rj	!	!	!LO:TX:t=P:problem:4\right:global	!	!	!	!	!	!	!	!	!	!	!	!	!LO:LB:g=original	!	!	!	!	!	!	!	!	!
4c\	x x 3_	.	4cc\	f	4e 4G/	f	8gg'\	.	4c\	Ple-	4c\	Ple-	4g\	Ple-	4ee\	Ple-	4C/	8c/L	4cc\	4ee\	.	4c\	4c\	.	4cc\	.	4ee\	.	4ccc\	.	4eee\
.	.	.	.	.	.	.	8aa'\J	.	.	.	.	.	.	.	.	.	.	8c/J	.	.	.	.	.	.	.	.	.	.	.	.	.
4G\	.	.	4g\	.	4e 4G/	.	(8bb\L	.	4G\	-ni	4c\	-ni	4g\	-ni	4ee\	-ni	4C/	4e/	4cc\	4ee\	.	4G\	4G\	.	4cc\	.	4ee\	.	4ccc\	.	4eee\
.	.	.	.	.	.	.	8ccc\)	.	.	.	.	.	.	.	.	.	.	.	.	.	.	.	.	.	.	.	.	.	.	.	.
4E\	.	.	4e\	.	4e 4G/	.	(8bb\	.	4E\	sunt	4c\	sunt	4g\	sunt	4ee\	sunt	4C/	4g/	4cc\	4ee\	.	4E\	4E\	.	4cc\	.	4ee\	.	4ccc\	.	4eee\
.	.	.	.	.	.	.	8ccc\J)	.	.	.	.	.	.	.	.	.	.	.	.	.	.	.	.	.	.	.	.	.	.	.	.
!	!	!	!	!	!	!	!	!	!	!	!	!	!	!	!	!	!	!	!LO:LB:g=original	!	!	!	!	!	!	!	!	!	!	!	!
=2	=2	=2	=2	=2	=2	=2	=2	=2	=2	=2	=2	=2	=2	=2	=2	=2	=2	=2	=2	=2	=2	=2	=2	=2	=2	=2	=2	=2	=2	=2	=2
4C/	x x 3	.	4c\	.	4e 4G/	.	4gg\	.	2C/	Cae-	4c\	cőe-	4g\	Cae-	4ee\	Cae-	4C/	4cc\	4cc\	4ee\	.	4C/	4C/	.	4cc\	.	4ee\	.	4ccc\	.	4eee\
*	*	*	*2\right	*	*	*	*2\right	*	*	*	*2\right	*	*2\right	*	*2\right	*	*	*2\right	*2\right	*2\right	*	*	*	*	*2\right	*	*2\right	*	*2\right	*	*2\right
2C/	x x 5	.	2c\	.	2e 2G/	.	2gg^\	.	.	.	2c\	-li	2g\	-li	2ee\	-li	2C/	2cc\	2cc\	2ee\	.	2C/	2C/	.	2ee\	.	2gg\	.	2eee\	.	2ggg\
.	.	.	.	.	.	.	.	.	4C/	-li	.	.	.	.	.	.	.	.	.	.	.	.	.	.	.	.	.	.	.	.	.
4r	.	.	4r	.	4r	.	8ee\L	.	4r	.	4r	.	4r	.	4r	.	4r	4r	4r	4r	.	4r	4r	.	4r	.	4r	.	4r	.	4r
.	.	.	.	.	.	.	8cc\J	.	.	.	.	.	.	.	.	.	.	.	.	.	.	.	.	.	.	.	.	.	.	.	.
!LO:LB:g=original	!	!	!	!	!	!	!	!	!	!	!	!	!LO:LB:g=original	!	!	!	!	!	!	!	!	!	!	!	!	!	!	!	!	!	!
=3	=3	=3	=3	=3	=3	=3	=3	=3	=3	=3	=3	=3	=3	=3	=3	=3	=3	=3	=3	=3	=3	=3	=3	=3	=3	=3	=3	=3	=3	=3	=3
4r	.	.	4r	.	4r	.	8cc'\L	.	4r	.	4r	.	4r	.	4r	.	4r	4r	4r	4r	.	4r	4r	.	4r	.	4r	.	4r	.	4r
.	.	.	.	.	.	.	8b\	.	.	.	.	.	.	.	.	.	.	.	.	.	.	.	.	.	.	.	.	.	.	.	.
4G\	x x 7_	.	4d\	.	4f 4G/	.	(8aa\	.	4G\	cae-	4B\	cőe-	4f\	Cae-	4dd\	Cae-	4GG/	4g/	4g/	4dd\	.	4F\	4d\	.	4dd\	.	4ff\	.	4ff\	.	4ddd\
.	.	.	.	.	.	.	8gg\J)	.	.	.	.	.	.	.	.	.	.	.	.	.	.	.	.	.	.	.	.	.	.	.	.
4B\	.	.	4d\	.	4f 4G/	.	(8gg\L	.	4B\	-li	4B\	-li	4f\	-li	4dd\	-li	4GG/	4g/	4g/	4dd\	.	4F\	4d\	.	4dd\	.	4ff\	.	4ff\	.	4ddd\
.	.	.	.	.	.	.	8ff\)	.	.	.	.	.	.	.	.	.	.	.	.	.	.	.	.	.	.	.	.	.	.	.	.
4G\	.	.	4d\	.	4f 4G/	.	8ee'\	.	4G\	et	4B\	et	4f\	et	4dd\	et	4GG/	4g/	4g/	4dd\	.	4F\	4d\	.	4dd\	.	4ff\	.	4ff\	.	4ddd\
.	.	.	.	.	.	.	8dd'\J	.	.	.	.	.	.	.	.	.	.	.	.	.	.	.	.	.	.	.	.	.	.	.	.
!	!	!	!	!	!	!	!	!	!	!	!	!	!	!	!	!	!LO:LB:g=original	!	!	!	!	!	!	!	!	!	!	!	!	!	!
=4	=4	=4	=4	=4	=4	=4	=4	=4	=4	=4	=4	=4	=4	=4	=4	=4	=4	=4	=4	=4	=4	=4	=4	=4	=4	=4	=4	=4	=4	=4	=4
4c\	x x 3_	.	8d#X\L	.	8f#X/L	.	8dd#X\L	.	4c\	ter-	4c\	ter-	8f#X\L	ter-	8dd#X\L	ter-	4r	8r	4r	4r	.	8F#X\L	8d#X\L	.	8dd#X\L	.	8ff#X\L	.	8ff#X\L	.	8ddd#X\L
.	.	.	8e\J	.	8g/J	.	8ee\J	.	.	.	.	.	8g\J	.	8ee\J	.	.	8cc\L	.	.	.	8G\J	8e\J	.	8ee\J	.	8gg\J	.	8gg\J	.	8eee\J
4c\	.	.	4c\	.	4e 4G/	.	4cc\	.	4C/	-ra	4c\	-ra,	4e\	-ra	4cc\	-ra	4C/	8g\	4e/	4cc\	.	4E\	4c\	.	4cc\	.	4ee\	.	4ee\	.	4ccc\
.	.	.	.	.	.	.	.	.	.	.	.	.	.	.	.	.	.	8e\J	.	.	.	.	.	.	.	.	.	.	.	.	.
!	!	!	!	!	!	!	!LO:LB:g=original	!	!	!	!	!	!	!	!	!	!	!	!	!	!	!	!	!	!	!	!	!	!	!	!
4c\	.	.	4c\	.	4e 4G/	.	4r	.	2r	.	2r	.	2r	.	2r	.	4C/	4c/	4e/	4cc\	.	4E\	4c\	.	4cc\	.	4ee\	.	4ee\	.	4ccc\
4r	x x x	.	4r	.	4r	.	(8gg\L	.	.	.	.	.	.	.	.	.	4r	4r	4r	4r	.	4r	4r	.	4r	.	4r	.	4r	.	4r
.	.	.	.	.	.	.	8ff\J)	.	.	.	.	.	.	.	.	.	.	.	.	.	.	.	.	.	.	.	.	.	.	.	.
!	!	!	!	!	!	!	!	!	!	!	!	!	!	!	!LO:LB:g=original	!	!	!	!	!	!	!	!	!	!	!	!LO:LB:g=original	!	!	!	!
=5	=5	=5	=5	=5	=5	=5	=5	=5	=5	=5	=5	=5	=5	=5	=5	=5	=5	=5	=5	=5	=5	=5	=5	=5	=5	=5	=5	=5	=5	=5	=5
4r	.	.	4r	.	4r	.	8ee'\L	.	4r	.	4r	.	4r	.	4r	.	4r	4r	4r	4r	.	4r	4r	.	4r	.	4r	.	4r	.	4r
.	.	.	.	.	.	.	8ff'\	.	.	.	.	.	.	.	.	.	.	.	.	.	.	.	.	.	.	.	.	.	.	.	.
4c\	x x 3_	.	4cc\	.	4e 4G/	.	8gg'\	.	4c\	Ple-	4c\	Ple-	4g\	Ple-	4ee\	Ple-	4C/	8c/L	4cc\	4ee\	.	4c\	4c\	.	4cc\	.	4ee\	.	4ccc\	.	4eee\
.	.	.	.	.	.	.	8aa'\J	.	.	.	.	.	.	.	.	.	.	8c/J	.	.	.	.	.	.	.	.	.	.	.	.	.
!	!	!	!	!	!	!	!	!	!	!	!	!	!	!	!	!	!	!	!	!	!	!LO:TX:t=P:problem:niewyraźny zapis	!	!	!	!	!	!	!	!	!
4G\	.	.	4g\	.	4e 4G/	.	8bb\L	.	4G\	-ni	4c\	-ni	4g\	-ni	4ee\	-ni	4C/	4e/	4cc\	4ee\	.	4G\	4G\	.	4cc\	.	4ee\	.	4ccc\	.	4eee\
.	.	.	.	.	.	.	8ccc\	.	.	.	.	.	.	.	.	.	.	.	.	.	.	.	.	.	.	.	.	.	.	.	.
4E\	.	.	4e\	.	4e 4G/	.	8bb\	.	4E\	sunt	4c\	sunt	4g\	sunt	4ee\	sunt	4C/	4g/	4cc\	4ee\	.	4E\	4E\	.	4cc\	.	4ee\	.	4ccc\	.	4eee\
.	.	.	.	.	.	.	8ccc\J	.	.	.	.	.	.	.	.	.	.	.	.	.	.	.	.	.	.	.	.	.	.	.	.
!	!	!	!	!	!LO:LB:g=original	!	!	!	!LO:LB:g=original	!	!	!	!	!	!	!	!	!	!	!	!	!	!LO:LB:g=original	!	!	!	!	!	!LO:LB:g=original	!	!LO:LB:g=original
=6	=6	=6	=6	=6	=6	=6	=6	=6	=6	=6	=6	=6	=6	=6	=6	=6	=6	=6	=6	=6	=6	=6	=6	=6	=6	=6	=6	=6	=6	=6	=6
!	!	!	!	!	!LO:SIC:v:n=1:s=4e	!	!	!	!	!	!	!	!	!	!	!	!	!	!	!	!	!	!	!	!	!	!	!	!	!	!
4C/	x x 3	.	4c\	.	4f 4G/	.	4gg\	.	2C/	Cae-	4c\	cőe-	4g\	Cae-	4ee\	Cae-	4C/	4cc\	4cc\	4ee\	.	4C/	4C/	.	4cc\	.	4ee\	.	4ccc\	.	4eee\
2C/	x x 5	.	2c\	.	2e 2G/	.	2gg^\	.	.	.	2c\	-li	2g\	-li	2ee\	-li	2C/	2cc\	2cc\	2ee\	.	2C/	2C/	.	2ee\	.	2gg\	.	2eee\	.	2ggg\
.	.	.	.	.	.	.	.	.	4C/	-li	.	.	.	.	.	.	.	.	.	.	.	.	.	.	.	.	.	.	.	.	.
4r	.	.	4r	.	4r	.	(8ee\L	.	4r	.	4r	.	4r	.	4r	.	4r	4r	4r	4r	.	4r	4r	.	4r	.	4r	.	4r	.	4r
.	.	.	.	.	.	.	8cc\J)	.	.	.	.	.	.	.	.	.	.	.	.	.	.	.	.	.	.	.	.	.	.	.	.
!	!	!	!LO:LB:g=original	!	!	!	!	!	!	!	!LO:LB:g=original	!	!LO:LB:g=original	!	!	!	!	!LO:LB:g=original	!	!LO:LB:g=original	!	!	!	!	!LO:LB:g=original	!	!	!	!	!	!
=7	=7	=7	=7	=7	=7	=7	=7	=7	=7	=7	=7	=7	=7	=7	=7	=7	=7	=7	=7	=7	=7	=7	=7	=7	=7	=7	=7	=7	=7	=7	=7
4r	.	.	4r	.	4r	.	(8cc\L	.	4r	.	4r	.	4r	.	4r	.	4r	4r	4r	4r	.	4r	4r	.	4r	.	4r	.	4r	.	4r
.	.	.	.	.	.	.	8b\)	.	.	.	.	.	.	.	.	.	.	.	.	.	.	.	.	.	.	.	.	.	.	.	.
4G\	x x 7	.	4d\	.	4f 4G/	.	(8aa\	.	4G\	Cae-	4B\	cőe-	4f\	Cae-	4dd\	Cae-	4GG/	4g/	4g/	4dd\	.	4B\	4d\	.	4dd\	.	4ff\	.	4bb\	.	4ddd\
.	.	.	.	.	.	.	8gg\J)	.	.	.	.	.	.	.	.	.	.	.	.	.	.	.	.	.	.	.	.	.	.	.	.
4B\	.	.	4d\	.	4f 4G/	.	8ff#X'\L	.	4B\	-li	4B\	-li	4f\	-li	4dd\	-li	4GG/	4g/	4g/	4dd\	.	4B\	4d\	.	4dd\	.	4ff\	.	4bb\	.	4ddd\
.	.	.	.	.	.	.	8gg'\	.	.	.	.	.	.	.	.	.	.	.	.	.	.	.	.	.	.	.	.	.	.	.	.
4G\	.	.	4d\	.	4f 4G/	.	8aa'\	.	4G\	et	4B\	et	4f\	et	4dd\	et	4GG/	4g/	4g/	4dd\	.	4B\	4d\	.	4dd\	.	4ff\	.	4bb\	.	4ddd\
.	.	.	.	.	.	.	8bb'\J	.	.	.	.	.	.	.	.	.	.	.	.	.	.	.	.	.	.	.	.	.	.	.	.
=8	=8	=8	=8	=8	=8	=8	=8	=8	=8	=8	=8	=8	=8	=8	=8	=8	=8	=8	=8	=8	=8	=8	=8	=8	=8	=8	=8	=8	=8	=8	=8
4c\	x x 3	.	4c\	.	4e 4G/	.	4ccc\	.	4c\	ter-	4c\	ter-	4g\	ter-	4ee\	ter-	4r	4r	4r	4r	.	4r	4r	.	4r	.	4r	.	4r	.	4r
4C/	.	.	4c\	.	4e 4G/	.	4cc\	.	4C/	-ra	4c\	-ra	4g\	-ra	4ee\	-ra	4C/	4cc\	4e/	4cc\	.	4c\	4e\	.	4cc\	.	4ee\	.	4ccc\	.	4eee\
2r	.	.	2r	.	2r	.	4r	.	2r	.	2r	.	2r	.	2r	.	4C/	4cc\	4e/	4cc\	.	4c\	4e\	.	4cc\	.	4ee\	.	4ccc\	.	4eee\
.	.	.	.	.	.	.	4ccc\	.	.	.	.	.	.	.	.	.	4r	4r	4r	4r	.	4r	4r	.	4r	.	4r	.	4r	.	4r
!	!	!	!	!	!	!	!	!	!	!	!	!	!	!	!	!	!	!	!	!	!	!LO:LB:g=original	!	!	!	!	!	!	!	!	!
=9	=9	=9	=9	=9	=9	=9	=9	=9	=9	=9	=9	=9	=9	=9	=9	=9	=9	=9	=9	=9	=9	=9	=9	=9	=9	=9	=9	=9	=9	=9	=9
4r	.	.	4r	.	4r	.	8bb\L	.	4r	.	4r	.	4r	.	4r	.	4r	4r	4r	4r	.	4r	4r	.	4r	.	4r	.	4r	.	4r
.	.	.	.	.	.	.	8aa\J	.	.	.	.	.	.	.	.	.	.	.	.	.	.	.	.	.	.	.	.	.	.	.	.
!	!	!	!LO:SIC:v:s=4B/	!	!	!	!	!	!	!	!	!	!	!	!	!	!	!	!	!	!	!	!	!	!	!	!	!	!	!	!
4d\	x x 3_	.	4A/	.	4d 4G/	.	2gg^\	.	4d\	ple-	4B\	Ple-	4f\	Ple-	4dd\	Ple-	4GG/	4g/	4g/	4dd\	.	4B\	4d\	.	4b\	.	4dd\	.	4bb\	.	4ddd\
!	!	!	!LO:SIC:v:s=4B/	!	!	!	!	!	!	!	!	!	!	!	!	!	!	!	!	!	!	!	!	!	!	!	!	!	!	!	!
4B\	.	.	4A/	.	4d 4G/	.	.	.	4B\	-ni	4B\	-ni	4f\	-ni	4dd\	-ni	4GG/	4g/	4g/	4dd\	.	4B\	4d\	.	4b\	.	4dd\	.	4bb\	.	4ddd\
!	!	!	!LO:SIC:v:s=4B/	!	!	!	!	!	!	!	!	!	!	!	!	!	!	!	!	!	!	!	!	!	!	!	!	!	!	!	!
4G\	.	.	4A/	.	4d 4G/	.	8aa\L	.	4G\	sunt	4B\	sunt	4f\	sunt	4dd\	sunt	4GG/	4g/	4g/	4dd\	.	4B\	4d\	.	4b\	.	4dd\	.	4bb\	.	4ddd\
.	x x x	.	.	.	.	.	8bb\J	.	.	.	.	.	.	.	.	.	.	.	.	.	.	.	.	.	.	.	.	.	.	.	.
!	!	!	!	!	!	!	!LO:LB:g=original	!	!	!	!	!	!	!	!LO:LB:g=original	!	!	!	!LO:LB:g=original	!	!	!	!	!	!	!	!	!	!	!	!
=10	=10	=10	=10	=10	=10	=10	=10	=10	=10	=10	=10	=10	=10	=10	=10	=10	=10	=10	=10	=10	=10	=10	=10	=10	=10	=10	=10	=10	=10	=10	=10
*	*	*	*	*	*	*	*	*	*2\right	*	*	*	*	*	*	*	*	*	*	*	*	*	*	*	*	*	*	*	*	*	*
4r	.	.	4r	.	4r	.	(8ccc\L	.	2c\	Cae-	2c\	cőe-	2g\	Cae-	2ee\	Cae-	4r	4r	4r	4r	.	4r	4r	.	4r	.	4r	.	4r	.	4r
.	.	.	.	.	.	.	8bb\)	.	.	.	.	.	.	.	.	.	.	.	.	.	.	.	.	.	.	.	.	.	.	.	.
4c\	x x 3_	.	4c\	.	4e 4G/	.	(8aa\	.	.	.	.	.	.	.	.	.	4C/	4cc\	4cc\	4ee\	.	4c\	4e\	.	4cc\	.	4ee\	.	4ccc\	.	4eee\
.	.	.	.	.	.	.	8gg\J)	.	.	.	.	.	.	.	.	.	.	.	.	.	.	.	.	.	.	.	.	.	.	.	.
4c\	.	.	4c\	.	4e 4G/	.	(8ff\L	.	2C/	-li	2c\	-li	2g\	-li	2ee\	-li	4C/	4cc\	4cc\	4ee\	.	4c\	4e\	.	4cc\	.	4ee\	.	4ccc\	.	4eee\
.	.	.	.	.	.	.	8ee\)	.	.	.	.	.	.	.	.	.	.	.	.	.	.	.	.	.	.	.	.	.	.	.	.
4c\	.	.	4c\	.	4e 4G/	.	(8dd\	.	.	.	.	.	.	.	.	.	4C/	4cc\	4cc\	4ee\	.	4c\	4e\	.	4cc\	.	4ee\	.	4ccc\	.	4eee\
.	x x x	.	.	.	.	.	8cc\J)	.	.	.	.	.	.	.	.	.	.	.	.	.	.	.	.	.	.	.	.	.	.	.	.
!LO:LB:g=original	!	!	!	!	!	!	!	!	!	!	!	!	!	!	!	!	!LO:LB:g=original	!	!	!	!	!	!	!	!	!	!	!	!	!	!
=11	=11	=11	=11	=11	=11	=11	=11	=11	=11	=11	=11	=11	=11	=11	=11	=11	=11	=11	=11	=11	=11	=11	=11	=11	=11	=11	=11	=11	=11	=11	=11
4r	.	.	4r	.	4r	.	(8cc\L	.	4r	.	4r	.	4r	.	4r	.	4r	4r	4r	4r	.	4r	4r	.	4r	.	4r	.	4r	.	4r
.	.	.	.	.	.	.	8b\)	.	.	.	.	.	.	.	.	.	.	.	.	.	.	.	.	.	.	.	.	.	.	.	.
!	!	!	!LO:TX:t=P:problem: 4c 4c 4c poprawione na 4d 4d 4d	!	!	!	!	!	!	!	!	!	!	!	!	!	!	!	!	!	!	!	!	!	!	!	!	!	!	!	!
4G\	x x 5_	.	4d\	.	4f 4G/	.	(8aa\	.	4G\	Cae-	4g\	coe-	4f\	Cae-	4dd\	Cae-	4GG/	4g/	4g/	4dd\	.	4d\	4f\	.	4dd\	.	4ff\	.	4ddd\	.	4fff\
.	.	.	.	.	.	.	8gg\J)	.	.	.	.	.	.	.	.	.	.	.	.	.	.	.	.	.	.	.	.	.	.	.	.
4B\	.	.	4d\	.	4f 4G/	.	(8ff#X\L	.	4B\	-li	4g\	-li	4f\	-li,	4dd\	-li	4GG/	4g/	4g/	4dd\	.	4d\	4f\	.	4dd\	.	4ff\	.	4ddd\	.	4fff\
.	.	.	.	.	.	.	8gg\)	.	.	.	.	.	.	.	.	.	.	.	.	.	.	.	.	.	.	.	.	.	.	.	.
!	!	!	!	!	!	!	!	!	!	!	!	!	!LO:LB:g=original	!	!	!	!	!	!	!	!	!	!	!	!	!	!	!	!	!	!
4G\	.	.	4d\	.	4f 4G/	.	8ffn'\	.	4G\	et	4g\	et	4f\	et	4dd\	et	4GG/	4g/	4g/	4dd\	.	4d\	4f\	.	4dd\	.	4ff\	.	4ddd\	.	4fff\
.	x x x	.	.	.	.	.	8dd'\J	.	.	.	.	.	.	.	.	.	.	.	.	.	.	.	.	.	.	.	.	.	.	.	.
=12	=12	=12	=12	=12	=12	=12	=12	=12	=12	=12	=12	=12	=12	=12	=12	=12	=12	=12	=12	=12	=12	=12	=12	=12	=12	=12	=12	=12	=12	=12	=12
4r	.	.	4r	.	4r	.	4ee\	.	2c\	ter-	2g\	ter-	2e\	ter-	2cc\	ter-	4r	4r	4r	4r	.	4r	4r	.	4r	.	4r	.	4r	.	4r
4c\	x x 3_	.	4c\	.	4e 4G/	.	4cc\	.	.	.	.	.	.	.	.	.	4C/	4c/	4e/	4cc\	.	4c\	4e\	.	4cc\	.	4ee\	.	4ccc\	.	4eee\
4c\	.	.	4c\	.	4e 4G/	.	4r	.	2C/	-[r]a	2g\	-ra	2e\	-ra	2cc\	-ra	4C/	4c/	4e/	4cc\	.	4c\	4e\	.	4cc\	.	4ee\	.	4ccc\	.	4eee\
4c\	.	.	4c\	.	4e 4G/	.	4ccc\	.	.	.	.	.	.	.	.	.	4C/	4c/	4e/	4cc\	.	4c\	4e\	.	4cc\	.	4ee\	.	4ccc\	.	4eee\
!	!	!	!	!	!	!	!	!	!LO:LB:g=original	!	!	!	!	!	!	!	!	!	!	!	!	!	!	!	!	!	!	!	!	!	!
=13	=13	=13	=13	=13	=13	=13	=13	=13	=13	=13	=13	=13	=13	=13	=13	=13	=13	=13	=13	=13	=13	=13	=13	=13	=13	=13	=13	=13	=13	=13	=13
4r	x x x	.	4r	.	4r	.	(8bb\L	.	4r	.	4r	.	4r	.	4r	.	4r	4r	4r	4r	.	4r	4r	.	4r	.	4r	.	4r	.	4r
!	!	!	!	!	!	!	!LO:SIC:v:s=8aa\J)	!	!	!	!	!	!	!	!	!	!	!	!	!	!	!	!	!	!	!	!	!	!	!	!
.	.	.	.	.	.	.	8gg\J)	.	.	.	.	.	.	.	.	.	.	.	.	.	.	.	.	.	.	.	.	.	.	.	.
4d\	x x 3_	.	4B\	.	4d 4G/	.	2gg\	.	4d\	ple-	4B\	Ple-	4f\	Ple-	4dd\	Ple-	4GG/	4g/	4g/	4dd\	.	4B\	4d\	.	4b\	.	4dd\	.	4bb\	.	4ddd\
4B\	.	.	4B\	.	4d 4G/	.	.	.	4B\	-ni	4B\	-ni	4f\	-ni	4dd\	-ni	4GG/	4g/	4g/	4dd\	.	4B\	4d\	.	4b\	.	4dd\	.	4bb\	.	4ddd\
4G\	.	.	4B\	.	4d 4G/	.	(8aa\L	.	4G\	sunt	4B\	sunt	4f\	sunt	4dd\	sunt	4GG/	4g/	4g/	4dd\	.	4B\	4d\	.	4b\	.	4dd\	.	4bb\	.	4ddd\
.	.	.	.	.	.	.	8bb\J)	.	.	.	.	.	.	.	.	.	.	.	.	.	.	.	.	.	.	.	.	.	.	.	.
!	!	!	!	!	!LO:LB:g=original	!	!	!	!	!	!LO:LB:g=original	!	!	!	!	!	!	!	!	!	!	!	!LO:LB:g=original	!	!	!	!LO:LB:g=original	!	!	!	!
=14	=14	=14	=14	=14	=14	=14	=14	=14	=14	=14	=14	=14	=14	=14	=14	=14	=14	=14	=14	=14	=14	=14	=14	=14	=14	=14	=14	=14	=14	=14	=14
4r	x x x	.	4r	.	4r	.	(8ccc\L	.	2c\	Cae-	2c\	cőe-	2g\	Cae-	2ee\	Cae-	4r	4r	4r	4r	.	4r	4r	.	4r	.	4r	.	4r	.	4r
.	.	.	.	.	.	.	8bb\)	.	.	.	.	.	.	.	.	.	.	.	.	.	.	.	.	.	.	.	.	.	.	.	.
!	!	!	!	!	!	!	!	!	!	!	!	!	!	!	!	!	!	!	!	!	!	!	!	!	!	!	!	!	!	!	!LO:LB:g=original
4c\	x x 3_	.	4c\	.	4e 4G/	.	8aa'\	.	.	.	.	.	.	.	.	.	4C/	4cc\	4cc\	4ee\	.	4c\	4e\	.	4cc\	.	4ee\	.	4ccc\	.	4eee\
.	.	.	.	.	.	.	8gg'\J	.	.	.	.	.	.	.	.	.	.	.	.	.	.	.	.	.	.	.	.	.	.	.	.
4c\	.	.	4c\	.	4e 4G/	.	8ff'\L	.	4c\	-li	2e\	-li	2e\	-li	2cc\	-li	4C/	4cc\	4cc\	4ee\	.	4c\	4e\	.	4cc\	.	4ee\	.	4ccc\	.	4eee\
.	.	.	.	.	.	.	8ee'\	.	.	.	.	.	.	.	.	.	.	.	.	.	.	.	.	.	.	.	.	.	.	.	.
4c\	.	.	4c\	.	4e 4G/	.	8dd'\	.	4c\	et	.	.	.	.	.	.	4C/	4cc\	4cc\	4ee\	.	4c\	4e\	.	4cc\	.	4ee\	.	4ccc\	.	4eee\
.	.	.	.	.	.	.	8cc'\J	.	.	.	.	.	.	.	.	.	.	.	.	.	.	.	.	.	.	.	.	.	.	.	.
!	!	!	!	!	!	!	!	!	!	!	!	!	!	!	!	!	!	!LO:LB:g=original	!	!LO:LB:g=original	!	!	!	!	!LO:LB:g=original	!	!	!	!LO:LB:g=original	!	!
=15	=15	=15	=15	=15	=15	=15	=15	=15	=15	=15	=15	=15	=15	=15	=15	=15	=15	=15	=15	=15	=15	=15	=15	=15	=15	=15	=15	=15	=15	=15	=15
*	*	*	*	*	*	*	*	*	*	*	*	*	*	*	*	*	*	*	*	*	*	*2\right	*2\right	*	*	*	*	*	*	*	*
4d\	x x 6	.	4d\	.	4d/	.	4b\	.	(2d\	ter-	2d\	et	2d\	et	2b\	et	4GG/	4g/	2g/	2dd\	.	2B\	2d\	.	2b\	.	2dd\	.	2bb\	.	2ddd\
4d\	.	.	4d\	.	4d/	.	4b\	.	.	.	.	.	.	.	.	.	4r	4g/	.	.	.	.	.	.	.	.	.	.	.	.	.
4D/	x x 5	.	4d\	.	4c/	.	(8a/L	.	2D/)	.	2d\	ter-	2c\	ter-	2a\	ter-	4GG/	4dd\	2dd\	2dd\	.	2A\	2c\	.	2a\	.	2cc\	.	2aa\	.	2ccc\
.	.	.	.	.	.	.	8b/)	.	.	.	.	.	.	.	.	.	.	.	.	.	.	.	.	.	.	.	.	.	.	.	.
4D/	.	.	4d\	.	4c/	.	(8cc/	.	.	.	.	.	.	.	.	.	4r	4dd\	.	.	.	.	.	.	.	.	.	.	.	.	.
.	.	.	.	.	.	.	8a/J)	.	.	.	.	.	.	.	.	.	.	.	.	.	.	.	.	.	.	.	.	.	.	.	.
!	!	!	!	!	!	!	!LO:LB:g=original	!	!	!	!	!	!	!	!LO:LB:g=original	!	!	!	!	!	!	!	!	!	!	!	!	!	!	!	!
=16	=16	=16	=16	=16	=16	=16	=16	=16	=16	=16	=16	=16	=16	=16	=16	=16	=16	=16	=16	=16	=16	=16	=16	=16	=16	=16	=16	=16	=16	=16	=16
4G\	x x 8	.	4d\	.	4B/	.	(8g'/L	.	4G\	-ra	4d\	-ra	4B/	-ra	4g\	-ra	4GG/	4g/	4g/	4dd\	.	4G\	4B\	.	4g/	.	4b\	.	4gg\	.	4bb\
.	.	.	.	.	.	.	8a'/)	.	.	.	.	.	.	.	.	.	.	.	.	.	.	.	.	.	.	.	.	.	.	.	.
4r	.	.	4r	.	4r	.	8b'/	.	4r	.	4r	.	4r	.	4r	.	4r	4r	4r	4r	.	4r	4r	.	4r	.	4r	.	4r	.	4r
.	.	.	.	.	.	.	8cc'/J	.	.	.	.	.	.	.	.	.	.	.	.	.	.	.	.	.	.	.	.	.	.	.	.
2r	.	.	2r	.	2r	.	8dd'\L	.	2r	.	2r	.	2r	.	2r	.	2r	2r	2r	2r	.	2r	2r	.	2r	.	2r	.	2r	.	2r
.	.	.	.	.	.	.	8ee'\	.	.	.	.	.	.	.	.	.	.	.	.	.	.	.	.	.	.	.	.	.	.	.	.
.	.	.	.	.	.	.	8ff#X'\	.	.	.	.	.	.	.	.	.	.	.	.	.	.	.	.	.	.	.	.	.	.	.	.
.	.	.	.	.	.	.	8gg'\J	.	.	.	.	.	.	.	.	.	.	.	.	.	.	.	.	.	.	.	.	.	.	.	.
!	!	!	!LO:LB:g=original	!	!	!	!	!	!	!	!	!	!LO:LB:g=original	!	!	!	!	!	!	!	!	!LO:LB:g=original	!	!	!	!	!	!	!	!	!
=17	=17	=17	=17	=17	=17	=17	=17	=17	=17	=17	=17	=17	=17	=17	=17	=17	=17	=17	=17	=17	=17	=17	=17	=17	=17	=17	=17	=17	=17	=17	=17
4d\	x x 6	.	4d\	.	4d/	.	4b/	.	2D\	Glo-	2d\	O-	2d\	O-	2b\	O-	4GG/	4g/	2g/	2dd\	.	2B\	2d\	.	2b\	.	2dd\	.	2bb\	.	2ddd\
4d\	.	.	4d\	.	4d/	.	4b/	.	.	.	.	.	.	.	.	.	4r	4g/	.	.	.	.	.	.	.	.	.	.	.	.	.
4D/	x x 5	.	4d\	.	4c/	.	8a/L	.	2D\	-ri-	2d\	-san-	2c\	-san-	2a\	-ſan-	4GG/	4dd\	2dd\	2dd\	.	2A\	2c\	.	2a\	.	2cc\	.	2aa\	.	2ccc\
.	.	.	.	.	.	.	8b/	.	.	.	.	.	.	.	.	.	.	.	.	.	.	.	.	.	.	.	.	.	.	.	.
4D/	.	.	4d\	.	4c/	.	8cc/	.	.	.	.	.	.	.	.	.	4r	4dd\	.	.	.	.	.	.	.	.	.	.	.	.	.
.	.	.	.	.	.	.	8a/J	.	.	.	.	.	.	.	.	.	.	.	.	.	.	.	.	.	.	.	.	.	.	.	.
=18	=18	=18	=18	=18	=18	=18	=18	=18	=18	=18	=18	=18	=18	=18	=18	=18	=18	=18	=18	=18	=18	=18	=18	=18	=18	=18	=18	=18	=18	=18	=18
4G\	x x 8	.	4d\	.	4B/	.	8g/L	.	4G\	-a	4d\	-[n]a	4B/	-na	4g\	-na	4GG/	4g/	4g/	4dd\	.	4G\	4B\	.	4g/	.	4b\	.	4gg\	.	4bb\
.	.	.	.	.	.	.	8a/	.	.	.	.	.	.	.	.	.	.	.	.	.	.	.	.	.	.	.	.	.	.	.	.
4r	.	.	4r	.	4r	.	8b/	.	4r	.	4r	.	4r	.	4r	.	4r	4r	4r	4r	.	4r	4r	.	4r	.	4r	.	4r	.	4r
.	.	.	.	.	.	.	8cc/J	.	.	.	.	.	.	.	.	.	.	.	.	.	.	.	.	.	.	.	.	.	.	.	.
2r	.	.	2r	.	2r	.	8dd\L	.	2r	.	2r	.	2r	.	2r	.	2r	2r	2r	2r	.	2r	2r	.	2r	.	2r	.	2r	.	2r
.	.	.	.	.	.	.	8ee\	.	.	.	.	.	.	.	.	.	.	.	.	.	.	.	.	.	.	.	.	.	.	.	.
.	.	.	.	.	.	.	8ff#X\	.	.	.	.	.	.	.	.	.	.	.	.	.	.	.	.	.	.	.	.	.	.	.	.
.	.	.	.	.	.	.	8gg\J	.	.	.	.	.	.	.	.	.	.	.	.	.	.	.	.	.	.	.	.	.	.	.	.
!LO:LB:g=original	!	!	!	!	!	!	!	!	!	!	!	!	!	!	!	!	!LO:LB:g=original	!	!LO:LB:g=original	!	!	!	!	!	!	!	!	!	!	!	!
=19	=19	=19	=19	=19	=19	=19	=19	=19	=19	=19	=19	=19	=19	=19	=19	=19	=19	=19	=19	=19	=19	=19	=19	=19	=19	=19	=19	=19	=19	=19	=19
!	!	!	!	!	!	!	!	!	!	!	!LO:SIC:v:l:s=in	!	!	!	!	!	!	!	!	!	!	!	!LO:TX:t=P:problem:t. 20-21 zapisane repetycją	!	!	!	!	!	!	!	!
4d\	x x 6	.	4d\	.	4d/	.	4b/	.	4D\	glo-	4d\	ni	4d\	in	4b\	in	4GG/	4g/	2g/	2dd\	.	2B\	2d\	.	2b\	.	2dd\	.	2bb\	.	2ddd\
4d\	.	.	4d\	.	4d/	.	4b/	.	4D\	-ri-	4d\	ex-	4d\	ex-	4b\	ex-	4r	4g/	.	.	.	.	.	.	.	.	.	.	.	.	.
4D/	x x 5	.	4d\	.	4c/	.	8a/L	.	2D\	-[[a]]-	2d\	-cel-	2c\	-cel-	2a\	-cel-	4GG/	4dd\	2dd\	2dd\	.	2A\	2c\	.	2a\	.	2cc\	.	2aa\	.	2ccc\
.	.	.	.	.	.	.	8b/	.	.	.	.	.	.	.	.	.	.	.	.	.	.	.	.	.	.	.	.	.	.	.	.
4D/	.	.	4d\	.	4c/	.	8cc/	.	.	.	.	.	.	.	.	.	4r	4dd\	.	.	.	.	.	.	.	.	.	.	.	.	.
.	.	.	.	.	.	.	8a/J	.	.	.	.	.	.	.	.	.	.	.	.	.	.	.	.	.	.	.	.	.	.	.	.
!	!	!	!	!	!	!	!	!	!LO:LB:g=original	!	!	!	!	!	!	!	!	!	!	!	!	!	!	!	!	!	!	!	!	!	!
=20	=20	=20	=20	=20	=20	=20	=20	=20	=20	=20	=20	=20	=20	=20	=20	=20	=20	=20	=20	=20	=20	=20	=20	=20	=20	=20	=20	=20	=20	=20	=20
!	!	!	!	!	!	!	!	!	!	!	!	!	!	!	!	!	!	!	!	!	!	!	!	!	!	!LO:DY:t=p.	!	!	!	!	!
4G\	x x 8	.	4d\	.	4B/	.	4g/	.	4G\	-a	4d\	-sis	4B\	-sis	4g\	-sis	4GG/	4g/	4g/	4dd\	.	4G\	4B\	.	4g/	p	4b\	.	4gg\	.	4bb\
!	!	!	!	!	!	!	!	!	!	!	!	!	!	!	!	!	!	!	!	!	!	!	!	!	!LO:TX:a:t=Solo	!	!LO:TX:a:t=Solo	!LO:DY:rj:t=p.	!	!LO:DY:rj	!
4r	.	.	4r	.	4r	.	4r	.	4r	.	4r	.	4d\	Ple-	4g\	Ple-	4r	4r	4r	4r	.	4r	4r	.	4d/	.	4g\	p	4dd\	p	4gg\
2r	.	.	2r	.	2r	.	2r	.	2r	.	2r	.	4g\	-ni	4b\	-ni	2r	2r	2r	2r	.	2r	2r	.	4g/	.	4b\	.	4gg\	.	4bb\
.	.	.	.	.	.	.	.	.	.	.	.	.	4b\	sunt	4dd\	sunt	.	.	.	.	.	.	.	.	4b/	.	4dd\	.	4bb\	.	4ddd\
=21	=21	=21	=21	=21	=21	=21	=21	=21	=21	=21	=21	=21	=21	=21	=21	=21	=21	=21	=21	=21	=21	=21	=21	=21	=21	=21	=21	=21	=21	=21	=21
!LO:TX:a:t=4	!	!	!LO:TX:a:t=4	!	!LO:TX:a:t=1	!	!LO:TX:a:t=1.	!	!	!	!	!	!	!	!	!	!LO:TX:a:t=4.	!LO:TX:a:t=4.	!	!	!	!	!	!	!	!	!	!	!	!	!
00r	.	.	00r	.	1r	.	1r	.	1G	tu-	1g	Cőe-	2dd\	Cae-	2ffn\	Cae-	00r	00r	2G/	2g/	f	4GG/	4GG/	.	2dd\	.	2ffn\	.	2ddd\	.	2fffn\
.	.	.	.	.	.	.	.	.	.	.	.	.	.	.	.	.	.	.	.	.	.	4G\	4G\	.	.	.	.	.	.	.	.
.	.	.	.	.	.	.	.	.	.	.	.	.	2cc\	.	2ee\	.	.	.	2G/	2g/	.	4G\	4G\	.	2cc\	.	2ee\	.	2ccc\	.	2eee\
.	.	.	.	.	.	.	.	.	.	.	.	.	.	.	.	.	.	.	.	.	.	4G\	4G\	.	.	.	.	.	.	.	.
!	!	!	!	!	!	!	!	!	!	!	!	!	!LO:LB:g=original	!	!LO:LB:g=original	!	!	!	!	!	!	!	!	!	!	!	!	!	!	!	!
=22	=22	=22	=22	=22	=22	=22	=22	=22	=22	=22	=22	=22	=22	=22	=22	=22	=22	=22	=22	=22	=22	=22	=22	=22	=22	=22	=22	=22	=22	=22	=22
.	.	.	.	.	8r	.	8r	.	4G\	-a	4g\	-li	4b\	-li	4dd\	-li	.	.	4G/	4g/	.	4G\	4G\	.	4b\	.	4dd\	.	4bb\	.	4ddd\
!	!	!	!	!	!	!LO:DY:rj:t=p.	!LO:TX:b:i:rj:t=dol.	!	!	!	!	!	!	!	!	!	!	!	!	!	!	!	!	!	!	!	!	!	!	!	!
.	.	.	.	.	8g/L	p	8gg\L	.	.	.	.	.	.	.	.	.	.	.	.	.	.	.	.	.	.	.	.	.	.	.	.
.	.	.	.	.	8g/	.	8gg\	.	4r	.	4r	.	4r	.	4r	.	.	.	4r	4r	.	4r	4r	.	4r	.	4r	.	4r	.	4r
.	.	.	.	.	8g/J	.	8gg\J	.	.	.	.	.	.	.	.	.	.	.	.	.	.	.	.	.	.	.	.	.	.	.	.
!	!	!	!	!	!	!	!LO:LB:g=original	!	!	!	!	!	!	!	!	!	!	!	!	!	!	!	!	!	!	!	!	!	!	!	!
.	.	.	.	.	8f#X/L	.	8ff#X\L	.	2r	.	2r	.	2r	.	2r	.	.	.	2r	2r	.	2r	2r	.	2r	.	2r	.	2r	.	2r
.	.	.	.	.	8g/J	.	8gg\	.	.	.	.	.	.	.	.	.	.	.	.	.	.	.	.	.	.	.	.	.	.	.	.
!	!	!	!	!	!LO:LB:g=original	!	!	!	!	!	!	!	!	!	!	!	!	!	!	!	!	!	!	!	!	!	!	!	!	!	!
.	.	.	.	.	8a/L	.	8aa\	.	.	.	.	.	.	.	.	.	.	.	.	.	.	.	.	.	.	.	.	.	.	.	.
.	.	.	.	.	8g/J	.	8gg\J	.	.	.	.	.	.	.	.	.	.	.	.	.	.	.	.	.	.	.	.	.	.	.	.
!	!	!	!	!	!	!	!	!	!	!	!LO:LB:g=original	!	!	!	!	!	!	!	!	!	!	!	!	!	!	!	!	!	!	!	!
=23	=23	=23	=23	=23	=23	=23	=23	=23	=23	=23	=23	=23	=23	=23	=23	=23	=23	=23	=23	=23	=23	=23	=23	=23	=23	=23	=23	=23	=23	=23	=23
!	!	!	!	!	!	!	!LO:TX:a:t=1.	!	!	!	!	!	!	!	!	!	!	!	!	!	!	!	!	!	!	!	!	!	!	!	!
.	.	.	.	.	1r	.	1r	.	2c\	O-	2e\	et	2g\	et	2gg\	et	.	.	1c	1cc	.	4C/	4C/	.	2ee\	.	2gg\	.	2eee\	.	2ggg\
.	.	.	.	.	.	.	.	.	.	.	.	.	.	.	.	.	.	.	.	.	.	4c\	4c\	.	.	.	.	.	.	.	.
.	.	.	.	.	.	.	.	.	2G\	-san-	2d\	ter-	2g\	ter-	2ff\	ter-	.	.	.	.	.	4c\	4c\	.	2dd\	.	2ff\	.	2ddd\	.	2fff\
.	.	.	.	.	.	.	.	.	.	.	.	.	.	.	.	.	.	.	.	.	.	4c\	4c\	.	.	.	.	.	.	.	.
!	!	!	!	!	!	!	!	!	!	!	!	!	!	!	!	!	!	!	!	!	!	!	!	!	!LO:LB:g=original	!	!LO:LB:g=original	!	!	!	!LO:LB:g=original
=24	=24	=24	=24	=24	=24	=24	=24	=24	=24	=24	=24	=24	=24	=24	=24	=24	=24	=24	=24	=24	=24	=24	=24	=24	=24	=24	=24	=24	=24	=24	=24
.	.	.	.	.	8r	.	8r	.	4C/	-na	4c\	-ra	4g\	-ra	4ee\	-ra	.	.	4c/	4cc\	.	4c\	4c\	.	4cc\	.	4ee\	.	4ccc\	.	4eee\
.	.	.	.	.	8g/L	.	8gg\L	.	.	.	.	.	.	.	.	.	.	.	.	.	.	.	.	.	.	.	.	.	.	.	.
.	.	.	.	.	8g/	.	8gg\	.	4r	.	4r	.	4r	.	4r	.	.	.	4r	4r	.	4r	4r	.	4r	.	4r	.	4r	.	4r
.	.	.	.	.	8g/J	.	8gg\J	.	.	.	.	.	.	.	.	.	.	.	.	.	.	.	.	.	.	.	.	.	.	.	.
.	.	.	.	.	8f#X/L	.	8ff#X\L	.	2r	.	2r	.	2r	.	2r	.	.	.	2r	2r	.	2r	2r	.	2r	.	2r	.	2r	.	2r
.	.	.	.	.	8g/	.	8gg\	.	.	.	.	.	.	.	.	.	.	.	.	.	.	.	.	.	.	.	.	.	.	.	.
.	.	.	.	.	8a/	.	8aa\	.	.	.	.	.	.	.	.	.	.	.	.	.	.	.	.	.	.	.	.	.	.	.	.
.	.	.	.	.	8g/J	.	8gg\J	.	.	.	.	.	.	.	.	.	.	.	.	.	.	.	.	.	.	.	.	.	.	.	.
!	!	!	!	!	!	!	!	!	!	!	!	!	!	!	!	!	!	!	!	!	!	!	!LO:LB:g=original	!	!	!	!	!	!LO:LB:g=original	!	!
=25	=25	=25	=25	=25	=25	=25	=25	=25	=25	=25	=25	=25	=25	=25	=25	=25	=25	=25	=25	=25	=25	=25	=25	=25	=25	=25	=25	=25	=25	=25	=25
4r	.	.	4r	.	4dd\	.	4bb\	.	4r	.	4r	.	4r	.	4r	.	4r	4r	4r	4r	.	4r	4r	.	4r	.	4r	.	4r	.	4r
!	!	!LO:DY:rj:t=for	!	!	!	!	!	!	!	!	!	!	!	!	!	!	!	!	!	!	!	!	!	!LO:DY:rj	!	!LO:DY:rj	!	!LO:DY:rj:t=f.	!	!	!
4GG/	x x 3	f	4G/	.	4.dd\	.	4.bb\	.	4GG/	o-	4B\	Ple-	4f\	Ple-	4dd\	Ple-	4GG/	4g/	4g/	4dd\	.	4GG/	4GG/	f	4b\	f	4dd\	f	4bb\	.	4ddd\
4G\	.	.	4g\	.	.	.	.	.	4G\	-san-	4B\	-ni	4f\	-ni	4dd\	-ni	4GG/	4g/	4g/	4dd\	.	4G\	4G\	.	4b\	.	4dd\	.	4bb\	.	4ddd\
.	.	.	.	.	8b\L	.	8gg\L	.	.	.	.	.	.	.	.	.	.	.	.	.	.	.	.	.	.	.	.	.	.	.	.
4Fn\	x x 4	.	4f\	.	8cc\	.	8aa\	.	4F\	-na	4B\	sunt	4f\	sunt	4dd\	sunt	4GG/	4g/	4g/	4dd\	.	4F\	4F\	.	4b\	.	4dd\	.	4bb\	.	4ddd\
.	.	.	.	.	8dd\J	.	8bb\J	.	.	.	.	.	.	.	.	.	.	.	.	.	.	.	.	.	.	.	.	.	.	.	.
!	!	!	!	!	!	!	!	!	!	!	!	!	!	!	!	!	!	!	!	!LO:LB:g=original	!	!LO:LB:g=original	!	!	!	!	!	!	!	!	!
=26	=26	=26	=26	=26	=26	=26	=26	=26	=26	=26	=26	=26	=26	=26	=26	=26	=26	=26	=26	=26	=26	=26	=26	=26	=26	=26	=26	=26	=26	=26	=26
*	*	*	*	*	*	*	*	*	*	*ij	*	*	*	*	*	*	*	*	*	*	*	*	*	*	*	*	*	*	*	*	*
2E\	x 6 3	.	2e\	.	8ee\L	.	8ccc\L	.	2E\	o-	4c\	cőe-	2g\	Cae-	2ee\	Cae-	4C/	2cc\	2cc\	2ee\	.	2E\	2E\	.	2cc\	.	2ee\	.	2ccc\	.	2eee\
.	.	.	.	.	8gg\	.	8bb\	.	.	.	.	.	.	.	.	.	.	.	.	.	.	.	.	.	.	.	.	.	.	.	.
.	.	.	.	.	8ff\	.	8aa\	.	.	.	4c\	-li	.	.	.	.	4r	.	.	.	.	.	.	.	.	.	.	.	.	.	.
.	.	.	.	.	8ee\J	.	8gg\J	.	.	.	.	.	.	.	.	.	.	.	.	.	.	.	.	.	.	.	.	.	.	.	.
4C\	x x 3_	.	4c\	.	8a/L	.	8ffn\L	.	4C/	-san-	2r	.	2g\	-li	2ee\	-li	4C/	2cc\	2cc\	2ee\	.	4C/	4C/	.	2cc\	.	2ee\	.	2ccc\	.	2eee\
.	.	.	.	.	8g/	.	8ee\	.	.	.	.	.	.	.	.	.	.	.	.	.	.	.	.	.	.	.	.	.	.	.	.
4E\	.	.	4e\	.	8f/	.	8dd\	.	4C/	-na	.	.	.	.	.	.	4r	.	.	.	.	4E\	4E\	.	.	.	.	.	.	.	.
*	*	*	*	*	*	*	*	*	*	*Xij	*	*	*	*	*	*	*	*	*	*	*	*	*	*	*	*	*	*	*	*	*
.	.	.	.	.	8e/J	.	8cc\J	.	.	.	.	.	.	.	.	.	.	.	.	.	.	.	.	.	.	.	.	.	.	.	.
=27	=27	=27	=27	=27	=27	=27	=27	=27	=27	=27	=27	=27	=27	=27	=27	=27	=27	=27	=27	=27	=27	=27	=27	=27	=27	=27	=27	=27	=27	=27	=27
4F\	x 6_ 3_	.	4f\	.	4f/	.	8cc#X\L	.	4.F\	in	4.c\	cőe-	4.a\	Cae-	4.ff\	Cae-	2r	2r	2dd\	2ff\	.	4F\	4F\	.	2a/	.	2ff\	.	2aa\	.	2fff\
.	.	.	.	.	.	.	8dd\	.	.	.	.	.	.	.	.	.	.	.	.	.	.	.	.	.	.	.	.	.	.	.	.
4F\	.	.	4f\	.	8a/L	.	8ff\	.	.	.	.	.	.	.	.	.	.	.	.	.	.	4F\	4F\	.	.	.	.	.	.	.	.
.	.	.	.	.	8f/J	.	8aa\J	.	8F\	ex-	8c\	-li	8a\	-li	8ff\	-li	.	.	.	.	.	.	.	.	.	.	.	.	.	.	.
!	!	!	!	!	!	!	!	!	!LO:LB:g=original	!	!	!	!LO:LB:g=original	!	!	!	!	!	!	!	!	!	!	!	!	!	!	!	!	!	!
4G\	x x 4	.	4g\	.	4e/	.	4ccn\	.	4G\	-cel-	4c\	et	4g\	et	4ee\	et	4GG/	4g/	4cc\	4ee\	.	4G\	4G\	.	4g\	.	4ee\	.	4gg\	.	4eee\
4GG/	x x 3	.	4G/	.	4d/	.	4b\	.	4GG/	.	4B\	ter-	4f\	ter-	4dd\	ter-	4GG/	4g/	4g/	4dd\	.	4GG/	4GG/	.	4f\	.	4dd\	.	4ff\	.	4ddd\
!	!	!	!	!	!	!	!	!	!	!	!	!	!	!	!LO:LB:g=original	!	!	!LO:LB:g=original	!	!	!	!	!	!	!	!	!	!	!	!	!
=28	=28	=28	=28	=28	=28	=28	=28	=28	=28	=28	=28	=28	=28	=28	=28	=28	=28	=28	=28	=28	=28	=28	=28	=28	=28	=28	=28	=28	=28	=28	=28
4C/	x x 3	.	4c\	.	4e 4G/	.	4cc\	.	4C/	-sis	4c\	-ra	4e\	-ra	4cc\	-ra	4C/	2cc\	4e/	4cc\	.	4C/	4C/	.	4e/	.	4cc\	.	4ee\	.	4eee\
2C/	x 5 3	.	2c\	.	2e 2G/	.	2gg^\	.	4r	.	4r	.	4r	.	4r	.	2C/	.	2e/	2cc\	.	2c\	2c\	.	2ee\	.	2gg\	.	2ccc\	.	2eee\
.	.	.	.	.	.	.	.	.	2r	.	2r	.	2r	.	2r	.	.	2cc\	.	.	.	.	.	.	.	.	.	.	.	.	.
4r	.	.	4r	.	4r	.	8ee\L	.	.	.	.	.	.	.	.	.	4r	.	4r	4r	.	4r	4r	.	4r	.	4r	.	4r	.	4r
.	.	.	.	.	.	.	8cc\J	.	.	.	.	.	.	.	.	.	.	.	.	.	.	.	.	.	.	.	.	.	.	.	.
!	!	!	!	!	!	!	!LO:LB:g=original	!	!	!	!	!	!	!	!	!	!	!	!LO:LB:g=original	!	!	!	!	!	!	!	!	!	!	!	!
=29	=29	=29	=29	=29	=29	=29	=29	=29	=29	=29	=29	=29	=29	=29	=29	=29	=29	=29	=29	=29	=29	=29	=29	=29	=29	=29	=29	=29	=29	=29	=29
4r	.	.	4r	.	4r	.	8b\L	.	4r	.	4r	.	4r	.	4r	.	4r	4r	4r	4r	.	4r	4r	.	4r	.	4r	.	4r	.	4r
.	.	.	.	.	.	.	8cc\	.	.	.	.	.	.	.	.	.	.	.	.	.	.	.	.	.	.	.	.	.	.	.	.
4G\	x x 7	.	4d\	.	4f 4G/	.	8dd\	.	4G\	O-	4B\	o-	4f\	O-	4dd\	O-	4GG/	4g/	4g/	4dd\	.	4B\	4d\	.	4dd\	.	4ff\	.	4bb\	.	4ddd\
.	.	.	.	.	.	.	8ee\J	.	.	.	.	.	.	.	.	.	.	.	.	.	.	.	.	.	.	.	.	.	.	.	.
!	!	!	!	!	!LO:LB:g=original	!	!	!	!	!	!	!	!	!	!	!	!	!	!	!	!	!	!	!	!	!	!	!	!	!	!
4G\	.	.	4d\	.	4f 4G/	.	8ff\L	.	2G\	-san-	2B\	-san-	2f\	-san-	2dd\	-san-	4GG/	4g/	4g/	4dd\	.	4B\	4d\	.	4dd\	.	4ff\	.	4bb\	.	4ddd\
.	.	.	.	.	.	.	8gg\	.	.	.	.	.	.	.	.	.	.	.	.	.	.	.	.	.	.	.	.	.	.	.	.
4G\	.	.	4d\	.	4f 4G/	.	8aa\	.	.	.	.	.	.	.	.	.	4GG/	4g/	4g/	4dd\	.	4B\	4d\	.	4dd\	.	4ff\	.	4bb\	.	4ddd\
.	.	.	.	.	.	.	8bb\J	.	.	.	.	.	.	.	.	.	.	.	.	.	.	.	.	.	.	.	.	.	.	.	.
!LO:LB:g=original	!	!	!	!	!	!	!	!	!	!	!LO:LB:g=original	!	!	!	!	!	!	!	!	!	!	!	!	!	!	!	!	!	!	!	!
=30	=30	=30	=30	=30	=30	=30	=30	=30	=30	=30	=30	=30	=30	=30	=30	=30	=30	=30	=30	=30	=30	=30	=30	=30	=30	=30	=30	=30	=30	=30	=30
4c\	x x 3	.	4c\	.	4e 4G/	.	4ccc\	.	4c\	-na	4c\	-[n]a	4g\	-na	4ee\	-na	4C/	4cc\	4cc\	4ee\	.	4c\	4e\	.	4cc\	.	4ee\	.	4ccc\	.	4eee\
2c\	x 5 3	.	2c\	.	2e/	.	2gg\	.	4r	.	4r	.	4r	.	4r	.	2C/	2cc\	2cc\	2ee\	.	2c\	2e\	.	2ee\	.	2gg\	.	2ccc\	.	2eee\
.	.	.	.	.	.	.	.	.	2r	.	2r	.	2r	.	2r	.	.	.	.	.	.	.	.	.	.	.	.	.	.	.	.
4r	.	.	4r	.	4r	.	8ee\L	.	.	.	.	.	.	.	.	.	4r	4r	4r	4r	.	4r	4r	.	4r	.	4r	.	4r	.	4r
.	.	.	.	.	.	.	8cc\J	.	.	.	.	.	.	.	.	.	.	.	.	.	.	.	.	.	.	.	.	.	.	.	.
!	!	!	!	!	!	!	!	!	!	!	!	!	!	!	!	!	!LO:TX:b:rj:i:t=V&colon; S&colon;	!	!	!	!	!	!	!	!	!	!	!	!	!	!
!	!	!	!LO:LB:g=original	!	!	!	!	!	!	!	!	!	!	!	!	!	!LO:PB:g=original	!	!	!	!	!	!	!	!	!	!	!	!	!	!
=31	=31	=31	=31	=31	=31	=31	=31	=31	=31	=31	=31	=31	=31	=31	=31	=31	=31	=31	=31	=31	=31	=31	=31	=31	=31	=31	=31	=31	=31	=31	=31
4r	.	.	4r	.	4r	.	8b\L	.	4r	.	4r	.	4r	.	4r	.	4r	4r	4r	4r	.	4r	4r	.	4r	.	4r	.	4r	.	4r
.	.	.	.	.	.	.	8cc\	.	.	.	.	.	.	.	.	.	.	.	.	.	.	.	.	.	.	.	.	.	.	.	.
!	!	!	!	!	!	!	!	!	!	!	!LO:SIC:v:l:s=in	!	!	!	!	!	!	!	!	!	!	!	!	!	!	!	!	!	!	!	!
4G\	x x 7	.	4d\	.	4f 4G/	.	8dd\	.	4G\	in	4B\	ni	4f\	in	4dd\	in	4GG/	4g/	4g/	4dd\	.	4B\	4d\	.	4dd\	.	4ff\	.	4bb\	.	4ddd\
.	.	.	.	.	.	.	8ee\J	.	.	.	.	.	.	.	.	.	.	.	.	.	.	.	.	.	.	.	.	.	.	.	.
4G\	.	.	4d\	.	4f 4G/	.	8ff\L	.	4G\	ex-	4B\	ex-	4f\	ex-	4dd\	ex-	4GG/	4g/	4g/	4dd\	.	4B\	4d\	.	4dd\	.	4ff\	.	4bb\	.	4ddd\
.	.	.	.	.	.	.	8gg\	.	.	.	.	.	.	.	.	.	.	.	.	.	.	.	.	.	.	.	.	.	.	.	.
4G\	.	.	4d\	.	4f 4G/	.	8aa\	.	4G\	-cel-	4B\	-cel-	4f\	-cel-	4dd\	-cel-	4GG/	4g/	4g/	4dd\	.	4B\	4d\	.	4dd\	.	4ff\	.	4bb\	.	4ddd\
.	.	.	.	.	.	.	8bb\J	.	.	.	.	.	.	.	.	.	.	.	.	.	.	.	.	.	.	.	.	.	.	.	.
!	!	!	!	!	!	!	!	!	!	!	!	!	!LO:LB:g=original	!	!	!	!	!	!	!	!	!	!	!	!	!	!LO:LB:g=original	!	!	!	!LO:LB:g=original
=32	=32	=32	=32	=32	=32	=32	=32	=32	=32	=32	=32	=32	=32	=32	=32	=32	=32	=32	=32	=32	=32	=32	=32	=32	=32	=32	=32	=32	=32	=32	=32
!	!	!	!	!	!	!	!	!	!	!	!	!	!	!	!	!	!	!	!	!	!	!	!	!	!	!	!LO:TX:a:rj:t=Solo	!	!	!	!
4C/	x x 10	.	4c\	.	4e/	.	4ccc\	.	4C/	-sis.	4c\	-sis.	4e\	-sis.	4ee\	-sis.	4C/	4c/	4e/	4cc\	.	8c\L	8e\L	.	8cc\L	.	8ee\L	.	8ccc\L	.	8eee\L
.	.	.	.	.	.	.	.	.	.	.	.	.	.	.	.	.	.	.	.	.	.	8e\	8g\	.	8ee\	.	8gg\	.	8eee\	.	8ggg\
4r	.	.	4r	.	4r	.	4r	.	4r	.	4r	.	4r	.	4r	.	4r	4r	4r	4r	.	8d\	8f\	.	8dd\	.	8ff\	.	8ddd\	.	8fff\
!	!	!	!	!	!	!	!	!	!	!	!	!	!	!	!	!	!	!	!	!	!	!	!LO:SIC:v:s=8e\J	!	!	!	!	!	!	!	!
.	.	.	.	.	.	.	.	.	.	.	.	.	.	.	.	.	.	.	.	.	.	8c\J	8d\J	.	8cc\J	.	8ee\J	.	8ccc\J	.	8eee\J
4G\	x 5 3	.	4g\	.	4ff 4dd 4g/	.	4bb 4dd 4g\	.	2r	.	2r	.	2r	.	2r	.	4GG/	4g/	4g/	4dd\	.	4d\	4f\	.	4dd\	.	4ff\	.	4ddd\	.	4fff\
4G\	.	.	4g\	.	4ff 4dd 4g/	.	4bb 4dd 4g\	.	.	.	.	.	.	.	.	.	4GG/	4g/	4g/	4dd\	.	4d\	4f\	.	4dd\	.	4ff\	.	4ddd\	.	4fff\
!	!	!	!	!	!	!	!	!	!	!	!	!	!	!	!	!	!	!	!	!	!	!	!LO:LB:g=original	!	!	!	!	!	!LO:LB:g=original	!	!
=33	=33	=33	=33	=33	=33	=33	=33	=33	=33	=33	=33	=33	=33	=33	=33	=33	=33	=33	=33	=33	=33	=33	=33	=33	=33	=33	=33	=33	=33	=33	=33
!	!	!	!	!	!	!	!	!	!LO:TX:a:t=3.	!	!LO:TX:a:t=3	!	!LO:TX:b:t=3.	!	!LO:TX:a:t=3.	!	!	!	!	!	!	!	!	!	!LO:LB:g=original	!	!	!	!	!	!
4c\	x x 3	.	4cc\	.	4ee 4cc 4g/	.	4ccc 4ee 4g\	.	0r	.	0r	.	0r	.	0r	.	4C/	4cc\	4cc\	4ee\	.	8c\L	8e\L	.	8cc\L	.	8ee\L	.	8ccc\L	.	8eee\L
.	.	.	.	.	.	.	.	.	.	.	.	.	.	.	.	.	.	.	.	.	.	8e\	8g\	.	8ee\	.	8gg\	.	8eee\	.	8ggg\
4r	.	.	4r	.	4r	.	4r	.	.	.	.	.	.	.	.	.	4r	4r	4r	4r	.	8d\	8f\	.	8dd\	.	8ff\	.	8ddd\	.	8fff\
.	.	.	.	.	.	.	.	.	.	.	.	.	.	.	.	.	.	.	.	.	.	8c\J	8e\J	.	8cc\J	.	8ee\J	.	8ccc\J	.	8eee\J
!	!	!	!	!	!LO:SIC:v:n=3:s=4g/	!	!	!	!	!	!	!	!	!	!	!	!	!	!	!	!	!	!	!	!	!	!	!	!	!	!
4G\	7 5 3	.	4g\	.	4ff 4dd 4e/	.	4bb 4dd 4g\	.	.	.	.	.	.	.	.	.	4GG/	4g/	4g/	4dd\	.	4d\	4f\	.	4dd\	.	4ff\	.	4ddd\	.	4fff\
4G\	.	.	4g\	.	4ff 4dd 4g/	.	4bb 4dd 4g\	.	.	.	.	.	.	.	.	.	4GG/	4g/	4g/	4dd\	.	4d\	4f\	.	4dd\	.	4ff\	.	4ddd\	.	4fff\
!	!	!	!	!	!	!	!	!	!	!	!	!	!	!	!	!	!	!LO:LB:g=original	!	!LO:LB:g=original	!	!	!	!	!	!	!	!	!	!	!
=34	=34	=34	=34	=34	=34	=34	=34	=34	=34	=34	=34	=34	=34	=34	=34	=34	=34	=34	=34	=34	=34	=34	=34	=34	=34	=34	=34	=34	=34	=34	=34
4C/	x x 10	.	4c\	.	4ee 4cc 4g/	.	4ccc 4ee 4g\	.	.	.	.	.	.	.	.	.	4C/	4c/	4e/	4cc\	.	4c\	4e\	.	4cc\	.	4ee\	.	4ccc\	.	4eee\
4r	.	.	4r	.	4r	.	4r	.	.	.	.	.	.	.	.	.	4r	4r	4r	4r	.	4r	4r	.	4r	.	4r	.	4r	.	4r
4C/	8_ 5_ 3_	.	4c\	.	4ee 4cc 4g/	.	4ccc 4ee 4g\	.	.	.	.	.	.	.	.	.	4C/	4c/	4e/	4cc\	.	4c\	4c\	.	4ee\	.	4ccc\	.	4ccc\	.	4eee\
4C/	.	.	4c\	.	4ee 4cc 4g/	.	4ccc 4ee 4g\	.	.	.	.	.	.	.	.	.	4C/	4c/	4e/	4cc\	.	4c\	4c\	.	4ee\	.	4ccc\	.	4ccc\	.	4eee\
!	!	!	!	!	!	!	!	!	!	!	!	!	!	!	!	!	!	!	!	!	!	!LO:LB:g=original	!	!	!	!	!	!	!	!	!
=35	=35	=35	=35	=35	=35	=35	=35	=35	=35	=35	=35	=35	=35	=35	=35	=35	=35	=35	=35	=35	=35	=35	=35	=35	=35	=35	=35	=35	=35	=35	=35
2C/	x x x	.	2c\	.	2ee 2cc 2g/	.	2ccc 2ee 2g\	.	1r	.	1r	.	1r	.	1r	.	2C/	2c/	2e/	2cc\	.	2c\	2c\	.	2ee\	.	2ccc\	.	2ccc\	.	2eee\
2r	.	.	2r	.	2r	.	2r	.	.	.	.	.	.	.	.	.	2r	2r	2r	2r	.	2r	2r	.	2r	.	2r	.	2r	.	2r
!	!	!	!	!	!	!	!	!	!	!	!	!	!	!	!	!	!LO:TX:t=Benedictus et Agnus Dei Tacet.	!LO:TX:t= Benedictus Tacet ÷	!LO:TX:t=Pleni	!	!	!	!	!	!	!	!	!	!	!	!
==	==	==	==	==	==	==	==	==	==	==	==	==	==	==	==	==	==	==	==	==	==	==	==	==	==	==	==	==	==	==	==
*-	*-	*-	*-	*-	*-	*-	*-	*-	*-	*-	*-	*-	*-	*-	*-	*-	*-	*-	*-	*-	*-	*-	*-	*-	*-	*-	*-	*-	*-	*-	*-
!!!system-decoration: [(g1)][(g2)][(g3)][(g4)][(g5)]g6
!!!RDF**kern: > = above
!!!RDF**kern: < = below
!!!RDF**kern: | = vertical stroke
!!!ENC: Katarzyna Serwa
!!!END: 2021-10-27
!!!ENC: Anastazja Marusiak
!!!END: 2021-01-28
!!!YEC: Copyright 2022 Narodowy Instytut Fryderyka Chopina (https://polishscores.org)
!!!YEM: License CC-BY-4.0 (https://creativecommons.org/licenses/by/4.0)
